img/services/duties/05.svg

<svg width="83" height="79" viewBox="0 0 83 79" fill="none" xmlns="http://www.w3.org/2000/svg">
<g filter="url(#filter0_dd)">
<path d="M63.9311 4.80662C58.6348 4.7288 52.7067 7.55778 49.2277 11.0368C47.9048 12.3597 47.0808 13.6369 46.6093 14.9049C44.9385 13.6598 43.0754 12.6664 40.7362 12.4101L32.7848 11.5266L29.3379 11.0368C27.5251 10.7759 25.6666 11.3938 24.3666 12.6893L5.92327 31.128C4.22496 32.8309 3.73516 35.4539 4.71477 37.6512L8.78887 46.8202C9.68609 48.8389 10.977 50.6013 12.6432 52.0707L16.4793 55.3849L16.0673 55.7923C14.5201 57.3396 13.6686 59.3995 13.6686 61.5922C13.6686 63.7849 14.5201 65.8448 16.0673 67.3966C17.6695 68.9942 19.766 69.7953 21.8718 69.7953C23.9729 69.7953 26.0694 68.9942 27.6716 67.3966L28.9305 66.1332L32.2035 68.9622C33.2243 69.8548 34.5015 70.2943 35.7695 70.2943C37.1656 70.2943 38.5572 69.7679 39.6101 68.715C40.6263 67.6942 41.1894 66.3392 41.1894 64.8927C41.1894 64.6913 41.1756 64.4853 41.1528 64.2839C43.1303 65.0071 45.4191 64.5585 46.9755 63.0067C48.1016 61.8806 48.6372 60.3883 48.5868 58.9097C50.7246 60.1457 53.4758 59.8161 55.261 58.0308C56.6572 56.6392 57.1516 54.6754 56.7396 52.881C58.5432 53.2929 60.507 52.7848 61.894 51.4024L62.1733 51.1231C64.1737 49.1181 64.2881 45.8772 62.4342 43.7394L57.2798 37.7885L59.0605 36.0032C64.0135 37.5596 67.964 38.704 72.4272 34.2362C76.6935 29.9699 79.994 21.9956 78.1218 16.0447C78.0027 15.6556 77.6823 15.3581 77.284 15.2619C76.8858 15.1612 76.4647 15.2803 76.1763 15.5686L68.8612 22.8837C68.5682 23.1767 68.1334 23.2911 67.7351 23.1858L66.4534 22.8425C63.629 22.0872 61.4088 19.8625 60.6535 17.0426L60.3056 15.7609C60.2003 15.3581 60.3147 14.9232 60.6123 14.6302L67.9365 7.30143C68.2249 7.01304 68.3439 6.5919 68.2478 6.19822C68.1517 5.79997 67.8541 5.47953 67.465 5.35594C66.3481 4.99888 65.1579 4.82493 63.9311 4.80662ZM63.8258 7.1641C64.1279 7.1641 64.4255 7.17784 64.7184 7.20072L58.9506 12.9685C58.0625 13.852 57.7192 15.1567 58.0397 16.3652L58.383 17.6469C59.358 21.277 62.2145 24.1334 65.84 25.1039L67.1217 25.4518C68.3348 25.7768 69.6348 25.4243 70.5229 24.5362L76.2678 18.7913C76.6294 23.4788 73.9881 29.3611 70.7701 32.5791C67.227 36.1177 64.485 35.2571 59.4999 33.6869L59.0834 33.5542C58.6668 33.426 58.209 33.5359 57.9023 33.8426L55.7371 36.0124L48.0421 27.1318L49.6168 25.557C49.9281 25.2503 50.038 24.7926 49.9052 24.376L49.777 23.9595C48.2023 18.9744 47.3371 16.2324 50.8802 12.6893C53.9106 9.66349 59.2939 7.15495 63.8258 7.1641ZM28.1889 13.3348C28.4544 13.3073 28.7291 13.3164 29.0037 13.3531L32.4873 13.852C32.4919 13.852 32.4964 13.8475 32.501 13.8475C32.5102 13.852 32.5148 13.8566 32.5239 13.8566L40.4753 14.7355C42.6908 14.9827 44.3891 16.0676 46.0829 17.4821C45.9913 19.6611 46.6688 21.9041 47.4562 24.4035L46.4994 25.3556L43.4782 21.8675C43.0571 21.3777 42.3155 21.3273 41.8257 21.753C41.3359 22.1742 41.2855 22.9158 41.7067 23.401L60.6626 45.2729C61.7155 46.486 61.6514 48.3262 60.5116 49.4615L60.2323 49.7453C59.0971 50.8805 57.2889 50.995 56.0209 50.0062L51.6035 46.5684C51.1137 46.1885 50.4133 46.2525 50.0059 46.7195C49.5939 47.1818 49.6168 47.8868 50.0517 48.3216L53.6039 51.8739C54.8445 53.1144 54.8445 55.1332 53.6039 56.3783C52.4687 57.509 50.6605 57.6234 49.3925 56.6346L44.9751 53.1968C44.4853 52.8169 43.7849 52.881 43.3729 53.3479C42.9655 53.8102 42.9884 54.5152 43.4233 54.9501L45.3138 56.8406C46.5589 58.0857 46.5589 60.1045 45.3138 61.345C44.1832 62.4803 42.3704 62.5901 41.107 61.6105L36.685 58.1727C36.1998 57.7882 35.4994 57.8523 35.0874 58.3192C34.68 58.7815 34.6983 59.4865 35.1377 59.9259L37.9484 62.732C38.5252 63.3088 38.8456 64.0779 38.8456 64.8927C38.8456 65.7121 38.5252 66.4811 37.9484 67.0579C36.8086 68.1977 34.9592 68.2618 33.7416 67.1952L14.1813 50.3038C12.7806 49.0678 11.6911 47.5801 10.9312 45.8726L6.85711 36.699C6.27117 35.3807 6.56414 33.8105 7.58037 32.7897L26.0237 14.351C26.605 13.7651 27.3787 13.4126 28.1889 13.3348ZM53.3659 20.6361C53.0683 20.6361 52.7708 20.7505 52.5419 20.9794C52.0796 21.4372 52.0796 22.1788 52.5419 22.6365L60.8229 30.922C61.0517 31.1509 61.3539 31.2654 61.656 31.2654C61.9535 31.2654 62.2557 31.1509 62.4845 30.922C62.9423 30.4643 62.9423 29.7227 62.4845 29.2649L54.1944 20.9794C53.9656 20.7505 53.668 20.6361 53.3659 20.6361ZM45.9089 38.0357C45.6068 38.0357 45.3093 38.1501 45.0804 38.379C44.6226 38.8414 44.6226 39.5784 45.0804 40.0361L46.7375 41.6932C46.9664 41.9221 47.2685 42.0365 47.566 42.0365C47.8682 42.0365 48.1703 41.9221 48.3992 41.6932C48.8569 41.2355 48.8569 40.4939 48.3992 40.0361L46.7375 38.379C46.5086 38.1501 46.211 38.0357 45.9089 38.0357ZM41.7662 42.183C41.464 42.183 41.1665 42.2929 40.9376 42.5218C40.4798 42.9795 40.4798 43.7257 40.9376 44.1835L42.5993 45.836C42.8236 46.0649 43.1257 46.1793 43.4233 46.1793C43.7254 46.1793 44.0275 46.0649 44.2518 45.836C44.7142 45.3782 44.7142 44.6366 44.2518 44.1835L42.5947 42.5218C42.3658 42.2929 42.0683 42.183 41.7662 42.183ZM37.6234 46.3258C37.3259 46.3258 37.0237 46.4356 36.7948 46.6691C36.3371 47.1223 36.3371 47.8639 36.7948 48.3216L38.452 49.9833C38.6808 50.2076 38.9784 50.3221 39.2805 50.3221C39.5826 50.3221 39.8802 50.2076 40.1091 49.9833C40.5668 49.5256 40.5668 48.784 40.1091 48.3216L38.452 46.6691C38.2231 46.4356 37.9209 46.3258 37.6234 46.3258ZM33.4806 50.464C33.1831 50.464 32.881 50.5784 32.6521 50.8119C32.1943 51.2696 32.1943 52.0066 32.6521 52.4644L34.3092 54.1261C34.5381 54.3504 34.8356 54.4694 35.1377 54.4694C35.4399 54.4694 35.7374 54.3504 35.9663 54.1261C36.4241 53.6637 36.4241 52.9267 35.9663 52.4644L34.3092 50.8119C34.0803 50.5784 33.7782 50.464 33.4806 50.464ZM29.3379 54.6067C29.0358 54.6067 28.7382 54.7212 28.5047 54.9501C28.047 55.4124 28.047 56.1494 28.5047 56.6117L30.1664 58.2643C30.3907 58.4931 30.6929 58.6122 30.9904 58.6122C31.2925 58.6122 31.5947 58.4931 31.819 58.2643C32.2813 57.8065 32.2813 57.0695 31.819 56.6117L30.1664 54.9501C29.933 54.7212 29.6354 54.6067 29.3379 54.6067ZM18.2554 56.9139L27.1498 64.5997L26.0099 65.735C23.7257 68.0192 20.0087 68.0192 17.7244 65.735C16.6166 64.6318 16.0078 63.1578 16.0078 61.5922C16.0078 60.0267 16.6166 58.5572 17.7244 57.4494L18.2554 56.9139Z" fill="#E4B564"/>
</g>
<defs>
<filter id="filter0_dd" x="0" y="0" width="83" height="83" filterUnits="userSpaceOnUse" color-interpolation-filters="sRGB">
<feFlood flood-opacity="0" result="BackgroundImageFix"/>
<feColorMatrix in="SourceAlpha" type="matrix" values="0 0 0 0 0 0 0 0 0 0 0 0 0 0 0 0 0 0 127 0" result="hardAlpha"/>
<feOffset dy="4"/>
<feGaussianBlur stdDeviation="2"/>
<feComposite in2="hardAlpha" operator="out"/>
<feColorMatrix type="matrix" values="0 0 0 0 0 0 0 0 0 0 0 0 0 0 0 0 0 0 0.25 0"/>
<feBlend mode="normal" in2="BackgroundImageFix" result="effect1_dropShadow"/>
<feColorMatrix in="SourceAlpha" type="matrix" values="0 0 0 0 0 0 0 0 0 0 0 0 0 0 0 0 0 0 127 0" result="hardAlpha"/>
<feOffset dy="4"/>
<feGaussianBlur stdDeviation="2"/>
<feComposite in2="hardAlpha" operator="out"/>
<feColorMatrix type="matrix" values="0 0 0 0 0 0 0 0 0 0 0 0 0 0 0 0 0 0 0.25 0"/>
<feBlend mode="normal" in2="effect1_dropShadow" result="effect2_dropShadow"/>
<feBlend mode="normal" in="SourceGraphic" in2="effect2_dropShadow" result="shape"/>
</filter>
</defs>
</svg>

<svg width="83" height="79" fill="none" xmlns="http://www.w3.org/2000/svg"><g filter="url(#filter0_dd)"><path d="M63.931 4.807c-5.296-.078-11.224 2.75-14.703 6.23-1.323 1.323-2.147 2.6-2.619 3.868-1.67-1.245-3.534-2.239-5.873-2.495l-7.951-.883-3.447-.49a5.89 5.89 0 00-4.971 1.652L5.923 31.128a5.898 5.898 0 00-1.208 6.523l4.074 9.17a15.142 15.142 0 003.854 5.25l3.836 3.314-.412.407a8.147 8.147 0 00-2.398 5.8 8.19 8.19 0 008.203 8.203 8.187 8.187 0 005.8-2.398l1.258-1.264 3.273 2.83a5.407 5.407 0 003.566 1.331 5.411 5.411 0 003.841-1.579 5.381 5.381 0 001.543-4.431 5.556 5.556 0 005.822-1.277 5.507 5.507 0 001.612-4.097 5.537 5.537 0 006.674-.88 5.52 5.52 0 001.479-5.149 5.554 5.554 0 005.154-1.479l.28-.279c2-2.005 2.114-5.246.26-7.384l-5.154-5.95 1.78-1.786c4.953 1.557 8.904 2.701 13.367-1.767 4.266-4.266 7.567-12.24 5.695-18.191a1.16 1.16 0 00-.838-.783c-.398-.1-.82.018-1.108.307l-7.315 7.315a1.177 1.177 0 01-1.126.302l-1.282-.343a8.22 8.22 0 01-5.8-5.8l-.347-1.282a1.171 1.171 0 01.306-1.13l7.324-7.33a1.173 1.173 0 00-.471-1.945c-1.117-.357-2.307-.531-3.534-.55zm-.105 2.357c.302 0 .6.014.892.037l-5.767 5.768a3.529 3.529 0 00-.911 3.396l.343 1.282a10.577 10.577 0 007.457 7.457l1.282.348a3.528 3.528 0 003.4-.916l5.746-5.745c.361 4.688-2.28 10.57-5.498 13.788-3.543 3.539-6.285 2.678-11.27 1.108l-.417-.133a1.183 1.183 0 00-1.18.289l-2.166 2.17-7.695-8.881 1.575-1.575c.311-.307.421-.764.288-1.181l-.128-.417c-1.575-4.985-2.44-7.727 1.103-11.27 3.03-3.026 8.414-5.534 12.946-5.525zm-35.637 6.17c.265-.027.54-.018.815.02l3.483.498c.005 0 .01-.005.014-.005.01.005.014.01.023.01l7.951.879c2.216.247 3.914 1.332 5.608 2.746-.092 2.18.586 4.422 1.373 6.922l-.957.952-3.02-3.489a1.168 1.168 0 00-1.653-.114 1.168 1.168 0 00-.12 1.648l18.957 21.872a3.08 3.08 0 01-.151 4.188l-.28.284a3.188 3.188 0 01-4.211.261l-4.418-3.438a1.168 1.168 0 00-1.597.151 1.17 1.17 0 00.046 1.603l3.552 3.552a3.191 3.191 0 010 4.504 3.192 3.192 0 01-4.212.257l-4.417-3.438a1.175 1.175 0 00-1.602.15 1.174 1.174 0 00.05 1.603l1.89 1.89a3.183 3.183 0 010 4.505 3.192 3.192 0 01-4.206.266l-4.422-3.438a1.164 1.164 0 00-1.598.146 1.176 1.176 0 00.05 1.607l2.811 2.806c.577.577.898 1.346.898 2.16 0 .82-.32 1.59-.898 2.166a3.089 3.089 0 01-4.206.137l-19.56-16.891a12.802 12.802 0 01-3.25-4.431l-4.075-9.174a3.539 3.539 0 01.723-3.91l18.444-18.438a3.527 3.527 0 012.165-1.016zm25.177 7.302a1.16 1.16 0 00-.824.343 1.163 1.163 0 000 1.658l8.28 8.285a1.174 1.174 0 001.662-1.657l-8.29-8.286a1.164 1.164 0 00-.828-.343zm-7.457 17.4a1.171 1.171 0 00-.829 2l1.657 1.657a1.175 1.175 0 001.662 0 1.17 1.17 0 000-1.657l-1.662-1.657a1.164 1.164 0 00-.828-.343zm-4.143 4.147c-.302 0-.6.11-.828.339a1.177 1.177 0 000 1.662l1.661 1.652c.225.229.527.343.824.343.302 0 .605-.114.829-.343.462-.458.462-1.2 0-1.652l-1.657-1.662a1.16 1.16 0 00-.829-.339zm-4.143 4.143c-.297 0-.6.11-.828.343a1.166 1.166 0 000 1.653l1.657 1.661a1.179 1.179 0 001.657 0 1.176 1.176 0 000-1.661l-1.657-1.653a1.153 1.153 0 00-.829-.343zm-4.142 4.138c-.298 0-.6.114-.829.348a1.166 1.166 0 000 1.652l1.657 1.662c.23.224.527.343.829.343.302 0 .6-.119.828-.343.458-.462.458-1.2 0-1.662l-1.657-1.652a1.158 1.158 0 00-.828-.348zm-4.143 4.143c-.302 0-.6.114-.833.343a1.177 1.177 0 000 1.662l1.661 1.652a1.16 1.16 0 001.653 0 1.158 1.158 0 000-1.652l-1.653-1.662a1.18 1.18 0 00-.828-.343zm-11.083 2.307L27.15 64.6l-1.14 1.135a5.866 5.866 0 01-8.286 0 5.81 5.81 0 01-1.716-4.143c0-1.565.609-3.035 1.716-4.143l.531-.535z" fill="#E4B564"/></g><defs><filter id="filter0_dd" x="0" y="0" width="83" height="83" filterUnits="userSpaceOnUse" color-interpolation-filters="sRGB"><feFlood flood-opacity="0" result="BackgroundImageFix"/><feColorMatrix in="SourceAlpha" values="0 0 0 0 0 0 0 0 0 0 0 0 0 0 0 0 0 0 127 0" result="hardAlpha"/><feOffset dy="4"/><feGaussianBlur stdDeviation="2"/><feComposite in2="hardAlpha" operator="out"/><feColorMatrix values="0 0 0 0 0 0 0 0 0 0 0 0 0 0 0 0 0 0 0.25 0"/><feBlend in2="BackgroundImageFix" result="effect1_dropShadow"/><feColorMatrix in="SourceAlpha" values="0 0 0 0 0 0 0 0 0 0 0 0 0 0 0 0 0 0 127 0" result="hardAlpha"/><feOffset dy="4"/><feGaussianBlur stdDeviation="2"/><feComposite in2="hardAlpha" operator="out"/><feColorMatrix values="0 0 0 0 0 0 0 0 0 0 0 0 0 0 0 0 0 0 0.25 0"/><feBlend in2="effect1_dropShadow" result="effect2_dropShadow"/><feBlend in="SourceGraphic" in2="effect2_dropShadow" result="shape"/></filter></defs></svg>
